common/resources/fonts/svg/sort-az.svg

<?xml version="1.0" encoding="UTF-8" standalone="no"?>
<svg width="1024px" height="1024px" viewBox="0 0 1024 1024" version="1.1" xmlns="http://www.w3.org/2000/svg" xmlns:xlink="http://www.w3.org/1999/xlink">
    <!-- Generator: Sketch 39.1 (31720) - http://www.bohemiancoding.com/sketch -->
    <title>sort-az</title>
    <desc>Created with Sketch.</desc>
    <defs></defs>
    <g id="Page-1" stroke="none" stroke-width="1" fill="none" fill-rule="evenodd">
        <g id="sort-az" fill="#020302">
            <path d="M791.99991,148.866704 L791.99991,283.674933 L493.491947,283.674933 L493.491947,327.042547 L791.99991,327.042547 L791.99991,456.22166 L974.589131,302.544182 L791.99991,148.866704 Z M895.910449,740.063274 L888.668057,739.174237 L865.661538,807.590986 L865.50686,808.111397 C864.137889,813.413811 861.142632,817.098612 850.985937,817.847427 L850.75898,817.866219 C822.308379,820.661985 773.480782,820.962667 733.490059,820.99447 C788.254683,752.532908 896.362917,616.219823 926.311146,576.334628 L928.453506,573.482485 L927.683008,570.081018 C924.74413,557.082299 920.32497,542.425491 916.774608,530.649738 L915.000872,524.770535 L749.669071,524.770535 C715.514183,524.770535 693.143722,523.965343 683.59851,523.210746 L675.806796,522.596372 L674.343862,529.723116 C670.750132,547.200265 667.157848,564.875459 663.564118,582.552098 C659.97328,600.217173 656.383887,617.882248 652.793048,635.349278 L651.299757,642.611907 L658.972933,644.606818 C675.036298,648.78601 687.494368,651.379393 698.180148,652.768603 L705.718885,653.748711 L726.415356,584.226088 C727.625312,580.210247 728.233905,578.195099 737.456751,578.195099 L737.742977,578.190762 C759.752041,577.514227 809.264846,576.827573 839.457379,576.649766 C803.028583,625.153552 752.790093,690.16016 708.161927,747.907029 C685.015186,777.858149 663.152126,806.14829 644.907371,829.941209 L642.566965,832.992843 L643.575985,836.618376 C646.266222,846.28068 650.115821,856.469178 653.511505,865.456394 L656.592051,873.628298 L810.009324,873.628298 C846.24152,873.628298 874.696457,874.018606 891.698008,874.251346 C898.918715,874.349646 904.135839,874.421925 906.985092,874.421925 L914.121955,874.421925 L915.496709,867.925456 C919.873947,847.246332 924.541748,826.502157 929.056316,806.440298 C932.663056,790.415965 936.391225,773.845199 939.91123,757.567888 L941.440661,750.497522 L934.034918,748.311794 C920.274374,744.255476 907.446234,741.479949 895.910449,740.063274 Z M467.796491,609.618549 C426.83578,465.013576 384.480076,315.486379 348.528324,194.604936 L346.6852,188.403368 L346.179245,188.403368 C344.171324,181.538274 342.180751,174.778709 340.214752,168.165148 C323.188627,168.165148 305.352973,169.17995 296.435146,170.194752 C294.321697,177.020814 292.176446,184.007337 290.008065,191.108061 L289.827367,191.128299 L288.150486,196.540578 C263.082559,277.479002 234.704238,370.71359 204.6606,469.422617 C168.851961,587.071727 131.83192,708.701983 100.633258,808.584827 L50.2227435,811.966055 L50.2227435,820.077245 C50.2227435,827.455521 50.031926,834.97402 49.8295438,842.934869 C49.6242704,851.033048 49.4117691,859.407334 49.4117691,867.764273 L49.4117691,876.437796 L58.085292,876.437796 C68.92575,876.437796 80.4644266,876.197829 92.6796379,875.943405 C104.909305,875.688982 117.553856,875.42444 129.429354,875.42444 L245.476753,875.42444 L245.914766,867.212059 C246.738751,851.763069 246.738751,834.194849 246.738751,820.077245 L246.738751,811.757891 L176.389253,808.821903 C179.160443,798.892165 182.076192,788.483938 185.065667,777.805385 C194.764111,743.177791 205.679739,704.204762 214.736343,670.430064 L399.528638,669.462966 C407.811853,697.372917 417.082403,730.622867 426.052271,762.790072 C430.545156,778.908368 434.818312,794.234483 438.925225,808.748178 L375.319391,811.811377 L375.319391,820.077245 C375.319391,827.455521 375.128573,834.97402 374.927636,842.934869 C374.720917,851.033048 374.509862,859.407334 374.509862,867.764273 L374.509862,876.437796 L383.183385,876.437796 C398.891135,876.437796 415.508159,876.203611 433.099509,875.956416 C451.712889,875.69621 470.959436,875.42444 490.19731,875.42444 L574.626827,875.42444 L575.06484,867.212059 C575.888824,851.763069 575.888824,834.194849 575.888824,820.077245 L575.888824,811.921242 L524.410021,808.751069 C507.031172,748.130373 487.953758,680.783359 467.796491,609.618549 Z M233.179144,603.443001 C230.088478,603.443001 227.33608,602.192568 225.474164,599.922996 C222.243277,595.983771 223.223385,591.071666 223.808848,588.135679 L223.992437,587.401321 L270.586602,427.695744 C281.854954,388.725606 293.272201,349.39118 303.910277,313.754565 L305.62908,307.995346 L320.786061,307.995346 L322.428248,313.902015 C339.762284,376.273318 372.804069,495.628221 399.349386,594.223046 L402.103229,604.44913 L233.179144,603.443001 Z" id="Combined-Shape"></path>
        </g>
    </g>
</svg>

<svg width="1024" height="1024" viewBox="0 0 1024 1024">
    <path d="M792 148.867v134.808H493.492v43.368H792v129.179l182.59-153.678L792 148.867zm103.91 591.196l-7.242-.889-23.006 68.417-.155.52c-1.37 5.303-4.364 8.988-14.521 9.736l-.227.02c-28.45 2.795-77.278 3.096-117.269 3.127 54.765-68.461 162.873-204.774 192.821-244.66l2.143-2.852-.771-3.401c-2.939-12.999-7.358-27.656-10.908-39.431L915 524.77H749.669c-34.155 0-56.525-.805-66.07-1.56l-7.792-.614-1.463 7.127c-3.594 17.477-7.186 35.152-10.78 52.83-3.59 17.664-7.18 35.33-10.771 52.796l-1.493 7.263 7.673 1.995c16.063 4.179 28.521 6.772 39.207 8.162l7.539.98 20.696-69.523c1.21-4.016 1.819-6.03 11.042-6.03l.286-.005c22.009-.677 71.522-1.363 101.714-1.541-36.428 48.504-86.667 113.51-131.295 171.257-23.147 29.951-45.01 58.241-63.255 82.034l-2.34 3.052 1.009 3.625c2.69 9.663 6.54 19.851 9.936 28.838l3.08 8.172H810.01c36.233 0 64.687.39 81.689.623 7.22.099 12.438.17 15.287.17h7.137l1.375-6.496c4.377-20.679 9.045-41.423 13.56-61.485 3.606-16.024 7.334-32.595 10.854-48.872l1.53-7.07-7.406-2.186c-13.76-4.057-26.589-6.832-38.125-8.249zM467.796 609.62c-40.96-144.605-83.316-294.133-119.268-415.014l-1.843-6.202h-.506a4802.62 4802.62 0 0 0-5.964-20.238c-17.026 0-34.862 1.015-43.78 2.03a5662.27 5662.27 0 0 0-6.427 20.913l-.18.02-1.678 5.413c-25.067 80.938-53.446 174.173-83.49 272.882-35.808 117.649-72.828 239.279-104.027 339.162l-50.41 3.381v8.111c0 7.379-.191 14.897-.393 22.858-.206 8.098-.418 16.472-.418 24.83v8.673h8.673c10.84 0 22.38-.24 34.595-.495 12.23-.254 24.874-.519 36.75-.519h116.047l.438-8.212c.824-15.449.824-33.017.824-47.135v-8.32l-70.35-2.935c2.771-9.93 5.687-20.338 8.677-31.017 9.698-34.627 20.614-73.6 29.67-107.375l184.793-.967c8.283 27.91 17.553 61.16 26.523 93.327 4.493 16.118 8.766 31.444 12.873 45.958l-63.606 3.063v8.266c0 7.379-.19 14.897-.391 22.858-.207 8.098-.418 16.472-.418 24.83v8.673h8.673c15.708 0 32.325-.234 49.917-.482 18.613-.26 37.86-.532 57.097-.532h84.43l.438-8.212c.824-15.449.824-33.017.824-47.135v-8.156l-51.479-3.17c-17.379-60.62-36.456-127.968-56.614-199.132zm-234.617-6.176c-3.09 0-5.843-1.25-7.705-3.52-3.23-3.94-2.25-8.851-1.665-11.787l.183-.735 46.595-159.705c11.268-38.97 22.685-78.305 33.323-113.941l1.72-5.76h15.156l1.642 5.907c17.334 62.371 50.376 181.726 76.921 280.321l2.754 10.226-168.924-1.006z" fill="#020302" fill-rule="evenodd"/>
</svg>
